X: 1181
M: 2/4
L: 1/16
K: G
d2 |\
d2gf g2d2 | B2d^c d2B2 | A2e2 d2c2 | BABc B2d2 |\
d2gf g2d2 | B2d^c d2B2 | A2e2 d2F2 | G6 H|]
d2 |\
d2gf g2d2 | B2d^c d2B2 | A2e2 d2F2 | "^da Capo"G6 ]
d2 |\
d4 e2f2 | a2g2 d2B2 | A2c2 F2A2 | G2B2 D2d2 |\
d4 e2f2 | a2g2 d2B2 | A2e2 d2F2 | "^da Capo"G6 |]
Ladies' chain.
Promenade four.

